public/static/lp/webcurate.svg

<svg xmlns="http://www.w3.org/2000/svg" viewBox="0 0 1697 291"><path fill="#979AAD" fill-rule="evenodd" d="M251.696 145.285c24.724 42.74 38.874 92.362 38.874 145.288-52.925 0-102.546-14.15-145.285-38.875 44.112-25.518 80.893-62.3 106.411-106.413ZM145.285 38.874C188.024 14.15 237.643 0 290.568 0c0 52.925-14.15 102.545-38.872 145.285-25.518-44.112-62.299-80.894-106.411-106.411ZM38.875 145.285c25.517 44.113 62.298 80.895 106.41 106.413C102.546 276.423 52.925 290.573 0 290.573c0-52.926 14.15-102.548 38.875-145.288Zm0 0C14.152 102.545.002 52.925.002 0c52.925 0 102.545 14.15 145.283 38.873-44.111 25.518-80.892 62.3-106.41 106.412Z" clip-rule="evenodd"/><path fill="#979AAD" stroke="#979AAD" stroke-width="1.11" d="M1596.02 232.376v.004c10.43 6.221 22.52 9.323 36.27 9.323 13.91 0 26.08-3.102 36.51-9.323v-.004c10.42-6.381 17.67-14.461 21.72-24.247l.2-.483-.48-.229-24.73-11.993-.48-.23-.25.464c-2.95 5.411-7.13 9.84-12.55 13.29l-.01.004c-5.22 3.425-11.77 5.156-19.68 5.156-10.21 0-18.82-3.122-25.87-9.353-6.75-6.105-10.67-14.344-11.75-24.767h99.01l.11-.421c.51-2.028.84-4.219 1.01-6.571.34-2.352.5-4.703.5-7.056 0-11.917-2.85-22.839-8.56-32.754-5.55-10.077-13.27-18.141-23.18-24.186-9.76-6.057-21.02-9.077-33.77-9.077-12.76 0-24.27 3.105-34.52 9.324-10.08 6.049-18.06 14.451-23.94 25.193-5.88 10.586-8.81 22.674-8.81 36.248 0 13.244 2.93 25.247 8.81 35.996 5.88 10.745 14.03 19.312 24.44 25.692Zm56.13-97.759v.005c6.08 5.436 9.42 12.43 10.03 21.019h-66.45c1.87-9.408 5.85-16.645 11.93-21.758 6.22-5.24 13.67-7.865 22.38-7.865 8.52 0 15.88 2.864 22.11 8.599ZM1521.7 192.91V131h31.99V102.906h-31.99V61.179h-31.09v22.043c0 6.39-1.8 11.225-5.32 14.59l-.01.01c-3.37 3.364-8.21 5.084-14.6 5.084H1466.12V131h24.49v61.91c0 14.928 4.11 26.58 12.41 34.873 8.29 8.296 20.11 12.406 35.37 12.406 2.34 0 4.94-.084 7.78-.251 2.85-.168 5.46-.504 7.83-1.011l.44-.094V213.749l-.65.101c-3.14.496-6.11.743-8.9.743-6.28 0-11.08-.992-14.46-2.918-3.23-2.107-5.48-4.765-6.77-7.973a30.213 30.213 0 0 1-1.96-10.792ZM1427.36 224.642v14.062H1456.71v-90.503c0-9.426-2.36-17.778-7.09-25.039-4.72-7.253-11.3-12.897-19.71-16.935-8.25-4.21-17.92-6.304-28.98-6.304-13.42 0-25.43 3.272-36.02 9.827v.002c-10.42 6.553-17.59 14.972-21.47 25.26l-.17.468.45.224 25.98 12.993.54.271.23-.564c2.45-6.228 6.38-11.133 11.78-14.733l.01-.007c5.4-3.762 11.61-5.647 18.67-5.647 7.4 0 13.35 1.889 17.89 5.621 4.53 3.723 6.79 8.561 6.79 14.563V152l-43.78 9.4-.01.001c-13.71 3.011-24.39 7.872-31.98 14.617-7.61 6.602-11.43 15-11.43 25.153 0 7.764 2.03 14.702 6.09 20.796 4.06 6.09 9.81 10.899 17.21 14.435 7.42 3.541 16.17 5.301 26.23 5.301 16.12 0 29.28-5.687 39.42-17.061Zm-39.3-40.421 37.55-8.59v8.299c0 6.237-1.47 11.886-4.42 16.959-2.94 4.908-7.03 8.837-12.28 11.79-5.07 2.78-10.89 4.178-17.47 4.178-6.42 0-11.45-1.398-15.16-4.135-3.68-2.885-5.53-6.799-5.53-11.801 0-4.004 1.52-7.442 4.58-10.341v-.006l.01-.005c3.07-3.072 7.3-5.196 12.71-6.346l.01-.002ZM1252.51 238.141v.555h31.09v-76.762c0-10.395 2.81-18.314 8.34-23.844 5.71-5.714 13.06-8.583 22.09-8.583H1330.83V101.413h-13.05c-8.4 0-15.81 1.596-22.23 4.804-5.69 2.77-10.26 7.342-13.69 13.677v-16.982H1252.51v135.229ZM1109.35 102.905h-.56V187.163c0 10.407 2.18 19.743 6.56 27.994 4.38 8.247 10.44 14.735 18.19 19.453 7.76 4.723 16.69 7.077 26.78 7.077 8.4 0 15.89-1.596 22.48-4.803v-.003c6.15-3.075 11.05-7.278 14.69-12.608v14.416h29.59V102.905h-31.09v80.51c0 9.047-2.63 16.228-7.84 21.601-5.04 5.207-11.72 7.827-20.09 7.827-8.53 0-15.38-2.62-20.59-7.827-5.04-5.372-7.59-12.552-7.59-21.601v-80.51h-30.53ZM975.525 234.655l.01.003c11.399 4.694 23.798 7.038 37.185 7.038 13.06 0 24.88-2.26 35.45-6.791 10.72-4.522 19.7-10.473 26.91-17.86 7.38-7.379 12.68-15.44 15.87-24.186l.17-.472-.45-.218-27.98-13.492-.54-.261-.22.559c-3.79 9.726-9.97 17.72-18.55 23.988-8.55 6.086-18.76 9.14-30.66 9.14-12.07 0-22.622-2.81-31.685-8.413-9.07-5.607-16.165-13.44-21.285-23.516-5.118-10.07-7.686-21.807-7.686-35.228 0-13.253 2.568-24.908 7.686-34.979 5.12-10.076 12.215-17.91 21.285-23.516 9.063-5.602 19.615-8.412 31.685-8.412 11.89 0 22.1 3.135 30.66 9.388l.01.004c8.57 6.1 14.75 14.009 18.54 23.735l.22.559.54-.26 27.98-13.493.45-.218-.17-.472c-3.19-8.745-8.49-16.807-15.87-24.186-7.22-7.387-16.19-13.339-26.91-17.86-10.57-4.531-22.39-6.79-35.45-6.79-13.554 0-26.038 2.427-37.44 7.289-11.229 4.693-21.036 11.399-29.417 20.115s-14.915 18.938-19.605 30.661l-.002.007c-4.525 11.73-6.783 24.541-6.783 38.428 0 14.052 2.258 26.947 6.783 38.678l.002.006c4.69 11.723 11.224 21.946 19.605 30.661l.003.004c8.546 8.713 18.433 15.5 29.659 20.36ZM811.018 236.911l.006.003.007.003c7.9 3.194 16.467 4.788 25.693 4.788 12.92 0 24.596-3.106 35.015-9.324 10.412-6.213 18.642-14.696 24.686-25.44 6.046-10.75 9.066-22.754 9.066-36.001 0-13.414-3.103-25.504-9.318-36.255-6.043-10.742-14.272-19.224-24.682-25.437-10.253-6.218-21.763-9.323-34.517-9.323-9.226 0-17.629 1.593-25.201 4.791l-.004.001c-6.9 2.98-12.642 7.06-17.216 12.246V51.452h-31.092V238.706h29.343v-14.799c4.896 5.521 10.97 9.855 18.214 13.004Zm42.907-29.466c-5.901 3.607-12.629 5.416-20.199 5.416-7.74 0-14.551-1.728-20.451-5.167-5.74-3.61-10.336-8.532-13.789-14.778-3.284-6.406-4.933-13.727-4.933-21.976 0-8.253 1.65-15.49 4.933-21.727 3.455-6.416 8.053-11.422 13.794-15.031 5.899-3.604 12.709-5.413 20.446-5.413 7.57 0 14.298 1.808 20.199 5.415 5.909 3.611 10.589 8.617 14.043 15.031 3.45 6.407 5.181 13.644 5.181 21.725 0 8.078-1.73 15.315-5.179 21.721-3.453 6.247-8.133 11.172-14.045 14.784ZM648.482 232.376l.006.004c10.425 6.221 22.519 9.323 36.264 9.323 13.91 0 26.088-3.102 36.514-9.323l.005-.004c10.411-6.381 17.662-14.461 21.711-24.247l.2-.483-.471-.229-24.736-11.993-.475-.23-.254.464c-2.951 5.411-7.132 9.84-12.553 13.29l-.007.004c-5.219 3.425-11.769 5.156-19.684 5.156-10.203 0-18.813-3.122-25.865-9.353-6.746-6.105-10.672-14.344-11.752-24.767H746.401l.105-.421c.507-2.028.844-4.219 1.013-6.571.335-2.352.502-4.703.502-7.056 0-11.917-2.854-22.839-8.566-32.754-5.544-10.077-13.273-18.141-23.18-24.186-9.758-6.057-21.022-9.077-33.772-9.077-12.753 0-24.264 3.105-34.517 9.324-10.081 6.049-18.061 14.451-23.936 25.193-5.881 10.586-8.814 22.674-8.814 36.248 0 13.244 2.935 25.247 8.813 35.996 5.877 10.745 14.023 19.312 24.433 25.692Zm56.133-97.759.006.005c6.075 5.436 9.418 12.43 10.023 21.019h-66.449c1.871-9.408 5.857-16.645 11.929-21.758 6.222-5.24 13.672-7.865 22.379-7.865 8.524 0 15.885 2.864 22.112 8.599ZM413.656 238.292l.109.414H454.105l.104-.421 35.19-141.496 34.943 141.496.104.421H564.786l.109-.413 48.972-186.145.183-.696h-33.633l-.106.42-35.932 142.497-34.701-142.493-.103-.424h-39.101l-.102.425-34.452 142.73-35.93-142.736-.106-.419h-35.132l.182.695 48.722 186.145Z"/></svg>

<svg viewBox="0 0 1697 291" xmlns="http://www.w3.org/2000/svg">
<path fill-rule="evenodd" clip-rule="evenodd" d="M251.696 145.285C276.42 188.025 290.57 237.647 290.57 290.573C237.645 290.573 188.024 276.423 145.285 251.698C189.397 226.18 226.178 189.398 251.696 145.285ZM145.285 38.8735C188.024 14.1502 237.643 8.81826e-05 290.568 8.81826e-05C290.568 52.9248 276.418 102.545 251.696 145.285C226.178 101.173 189.397 64.3913 145.285 38.8735ZM38.8748 145.285C64.3922 189.398 101.173 226.18 145.285 251.698C102.546 276.423 52.9256 290.573 0 290.573C0 237.647 14.1506 188.025 38.8748 145.285ZM38.8748 145.285C14.1521 102.545 0.00246739 52.9247 0.00246739 0C52.9271 0 102.547 14.1502 145.285 38.8735C101.174 64.3913 64.3926 101.173 38.8748 145.285Z" fill="#979AAD"/>
<path d="M1596.02 232.376L1596.02 232.38C1606.45 238.601 1618.54 241.703 1632.29 241.703C1646.2 241.703 1658.37 238.601 1668.8 232.38L1668.8 232.376C1679.22 225.995 1686.47 217.915 1690.52 208.129L1690.72 207.646L1690.24 207.417L1665.51 195.424L1665.03 195.194L1664.78 195.658C1661.83 201.069 1657.65 205.498 1652.23 208.948L1652.22 208.952C1647 212.377 1640.45 214.108 1632.54 214.108C1622.33 214.108 1613.72 210.986 1606.67 204.755C1599.92 198.65 1596 190.411 1594.92 179.988H1693.5H1693.93L1694.04 179.567C1694.55 177.539 1694.88 175.348 1695.05 172.996C1695.39 170.644 1695.55 168.293 1695.55 165.94C1695.55 154.023 1692.7 143.101 1686.99 133.186C1681.44 123.109 1673.72 115.045 1663.81 109C1654.05 102.943 1642.79 99.9227 1630.04 99.9227C1617.28 99.9227 1605.77 103.028 1595.52 109.247C1585.44 115.296 1577.46 123.698 1571.58 134.44C1565.7 145.026 1562.77 157.114 1562.77 170.688C1562.77 183.932 1565.7 195.935 1571.58 206.684C1577.46 217.429 1585.61 225.996 1596.02 232.376ZM1652.15 134.617L1652.15 134.622C1658.23 140.058 1661.57 147.052 1662.18 155.641H1595.73C1597.6 146.233 1601.58 138.996 1607.66 133.883C1613.88 128.643 1621.33 126.018 1630.04 126.018C1638.56 126.018 1645.92 128.882 1652.15 134.617Z" fill="#979AAD" stroke="#979AAD" stroke-width="1.10968"/>
<path d="M1521.7 192.91V131H1553.13H1553.69V130.446V103.461V102.906H1553.13H1521.7V61.7344V61.1795H1521.15H1491.17H1490.61V61.7344V83.2222C1490.61 89.6121 1488.81 94.4466 1485.29 97.8124L1485.29 97.8123L1485.28 97.8214C1481.91 101.186 1477.07 102.906 1470.68 102.906H1466.68H1466.12V103.461V130.446V131H1466.68H1490.61V192.91C1490.61 207.838 1494.72 219.49 1503.02 227.783C1511.31 236.079 1523.13 240.189 1538.39 240.189C1540.73 240.189 1543.33 240.105 1546.17 239.938C1549.02 239.77 1551.63 239.434 1554 238.927L1554.44 238.833V238.384V214.398V213.749L1553.79 213.85C1550.65 214.346 1547.68 214.593 1544.89 214.593C1538.61 214.593 1533.81 213.601 1530.43 211.675C1527.2 209.568 1524.95 206.91 1523.66 203.702C1522.36 200.27 1521.7 196.674 1521.7 192.91Z" fill="#979AAD" stroke="#979AAD" stroke-width="1.10968"/>
<path d="M1427.36 224.642V238.15V238.704H1427.92H1456.15H1456.71V238.15V148.201C1456.71 138.775 1454.35 130.423 1449.62 123.162C1444.9 115.909 1438.32 110.265 1429.91 106.227C1421.66 102.017 1411.99 99.9227 1400.93 99.9227C1387.51 99.9227 1375.5 103.195 1364.91 109.75L1364.91 109.75L1364.91 109.752C1354.49 116.305 1347.32 124.724 1343.44 135.012L1343.27 135.48L1343.72 135.704L1369.7 148.697L1370.24 148.968L1370.47 148.404C1372.92 142.176 1376.85 137.271 1382.25 133.671L1382.25 133.671L1382.26 133.664C1387.66 129.902 1393.87 128.017 1400.93 128.017C1408.33 128.017 1414.28 129.906 1418.82 133.638C1423.35 137.361 1425.61 142.199 1425.61 148.201V152L1381.83 161.4L1381.82 161.401C1368.11 164.412 1357.43 169.273 1349.84 176.018C1342.23 182.62 1338.41 191.018 1338.41 201.171C1338.41 208.935 1340.44 215.873 1344.5 221.967C1348.56 228.057 1354.31 232.866 1361.71 236.402C1369.13 239.943 1377.88 241.703 1387.94 241.703C1404.06 241.703 1417.22 236.016 1427.36 224.642ZM1388.06 184.221L1425.61 175.631V183.93C1425.61 190.167 1424.14 195.816 1421.19 200.889C1418.25 205.797 1414.16 209.726 1408.91 212.679C1403.84 215.459 1398.02 216.857 1391.44 216.857C1385.02 216.857 1379.99 215.459 1376.28 212.722C1372.6 209.837 1370.75 205.923 1370.75 200.921C1370.75 196.917 1372.27 193.479 1375.33 190.58L1375.33 190.574L1375.34 190.569C1378.41 187.497 1382.64 185.373 1388.05 184.223L1388.05 184.223L1388.06 184.221Z" fill="#979AAD" stroke="#979AAD" stroke-width="1.10968"/>
<path d="M1252.51 238.141V238.696H1253.07H1283.05H1283.6V238.141V161.934C1283.6 151.539 1286.41 143.62 1291.94 138.09C1297.65 132.376 1305 129.507 1314.03 129.507H1330.27H1330.83V128.953V101.968V101.413H1330.27H1317.78C1309.38 101.413 1301.97 103.009 1295.55 106.217C1289.86 108.987 1285.29 113.559 1281.86 119.894V103.467V102.912H1281.3H1253.07H1252.51V103.467V238.141Z" fill="#979AAD" stroke="#979AAD" stroke-width="1.10968"/>
<path d="M1109.35 102.905H1108.79V103.46V187.163C1108.79 197.57 1110.97 206.906 1115.35 215.157C1119.73 223.404 1125.79 229.892 1133.54 234.61C1141.3 239.333 1150.23 241.687 1160.32 241.687C1168.72 241.687 1176.21 240.091 1182.8 236.884L1182.8 236.881C1188.95 233.806 1193.85 229.603 1197.49 224.273V238.134V238.689H1198.05H1226.53H1227.08V238.134V103.46V102.905H1226.53H1196.55H1195.99V103.46V183.415C1195.99 192.462 1193.36 199.643 1188.15 205.016L1188.15 205.016C1183.11 210.223 1176.43 212.843 1168.06 212.843C1159.53 212.843 1152.68 210.223 1147.47 205.016C1142.43 199.644 1139.88 192.464 1139.88 183.415V103.46V102.905H1139.33H1109.35Z" fill="#979AAD" stroke="#979AAD" stroke-width="1.10968"/>
<path d="M975.525 234.655L975.535 234.658C986.934 239.352 999.333 241.696 1012.72 241.696C1025.78 241.696 1037.6 239.436 1048.17 234.905C1058.89 230.383 1067.87 224.432 1075.08 217.045C1082.46 209.666 1087.76 201.605 1090.95 192.859L1091.12 192.387L1090.67 192.169L1062.69 178.677L1062.15 178.416L1061.93 178.975C1058.14 188.701 1051.96 196.695 1043.38 202.963C1034.83 209.049 1024.62 212.103 1012.72 212.103C1000.65 212.103 990.098 209.293 981.035 203.69C971.965 198.083 964.87 190.25 959.75 180.174C954.632 170.104 952.064 158.367 952.064 144.946C952.064 131.693 954.632 120.038 959.75 109.967C964.87 99.8913 971.965 92.0578 981.035 86.451C990.098 80.8485 1000.65 78.0387 1012.72 78.0387C1024.61 78.0387 1034.82 81.1743 1043.38 87.4265L1043.39 87.4306C1051.96 93.5316 1058.14 101.44 1061.93 111.166L1062.15 111.725L1062.69 111.465L1090.67 97.9724L1091.12 97.7541L1090.95 97.2822C1087.76 88.5365 1082.46 80.4748 1075.08 73.0962C1067.86 65.709 1058.89 59.7573 1048.17 55.2353C1037.6 50.705 1025.78 48.4452 1012.72 48.4452C999.166 48.4452 986.682 50.8726 975.28 55.7348C964.051 60.4279 954.244 67.1337 945.863 75.85C937.482 84.5656 930.948 94.7879 926.258 106.511L926.258 106.511L926.256 106.518C921.731 118.248 919.473 131.059 919.473 144.946C919.473 158.998 921.731 171.893 926.256 183.624L926.258 183.63C930.948 195.353 937.482 205.576 945.863 214.291L945.866 214.295C954.412 223.008 964.299 229.795 975.525 234.655Z" fill="#979AAD" stroke="#979AAD" stroke-width="1.10968"/>
<path d="M811.018 236.911L811.024 236.914L811.031 236.917C818.931 240.111 827.498 241.705 836.724 241.705C849.644 241.705 861.32 238.599 871.739 232.381C882.151 226.168 890.381 217.685 896.425 206.941C902.471 196.191 905.491 184.187 905.491 170.94C905.491 157.526 902.388 145.436 896.173 134.685C890.13 123.943 881.901 115.461 871.491 109.248C861.238 103.03 849.728 99.9246 836.974 99.9246C827.748 99.9246 819.345 101.518 811.773 104.716L811.769 104.717C804.869 107.697 799.127 111.777 794.553 116.963V52.0068V51.452H793.999H764.016H763.461V52.0068V238.152V238.706H764.016H792.25H792.804V238.152V223.907C797.7 229.428 803.774 233.762 811.018 236.911ZM853.925 207.445C848.024 211.052 841.296 212.861 833.726 212.861C825.986 212.861 819.175 211.133 813.275 207.694C807.535 204.084 802.939 199.162 799.486 192.916C796.202 186.51 794.553 179.189 794.553 170.94C794.553 162.687 796.203 155.45 799.486 149.213C802.941 142.797 807.539 137.791 813.28 134.182C819.179 130.578 825.989 128.769 833.726 128.769C841.296 128.769 848.024 130.577 853.925 134.184C859.834 137.795 864.514 142.801 867.968 149.215C871.418 155.622 873.149 162.859 873.149 170.94C873.149 179.018 871.419 186.255 867.97 192.661C864.517 198.908 859.837 203.833 853.925 207.445Z" fill="#979AAD" stroke="#979AAD" stroke-width="1.10968"/>
<path d="M648.482 232.376L648.488 232.38C658.913 238.601 671.007 241.703 684.752 241.703C698.662 241.703 710.84 238.601 721.266 232.38L721.271 232.376C731.682 225.995 738.933 217.915 742.982 208.129L743.182 207.646L742.711 207.417L717.975 195.424L717.5 195.194L717.246 195.658C714.295 201.069 710.114 205.498 704.693 208.948L704.686 208.952C699.467 212.377 692.917 214.108 685.002 214.108C674.799 214.108 666.189 210.986 659.137 204.755C652.391 198.65 648.465 190.411 647.385 179.988H745.967H746.401L746.506 179.567C747.013 177.539 747.35 175.348 747.519 172.996C747.854 170.644 748.021 168.293 748.021 165.94C748.021 154.023 745.167 143.101 739.455 133.186C733.911 123.109 726.182 115.045 716.275 109C706.517 102.943 695.253 99.9227 682.503 99.9227C669.75 99.9227 658.239 103.028 647.986 109.247C637.905 115.296 629.925 123.698 624.05 134.44C618.169 145.026 615.236 157.114 615.236 170.688C615.236 183.932 618.171 195.935 624.049 206.684C629.926 217.429 638.072 225.996 648.482 232.376ZM704.615 134.617L704.621 134.622C710.696 140.058 714.039 147.052 714.644 155.641H648.195C650.066 146.233 654.052 138.996 660.124 133.883C666.346 128.643 673.796 126.018 682.503 126.018C691.027 126.018 698.388 128.882 704.615 134.617Z" fill="#979AAD" stroke="#979AAD" stroke-width="1.10968"/>
<path d="M413.656 238.292L413.765 238.706H414.193H453.671H454.105L454.209 238.285L489.399 96.7893L524.342 238.285L524.446 238.706H524.88H564.358H564.786L564.895 238.293L613.867 52.148L614.05 51.452H613.33H580.849H580.417L580.311 51.8712L544.379 194.369L509.678 51.8756L509.575 51.452H509.139H470.911H470.474L470.372 51.8766L435.92 194.607L399.99 51.8714L399.884 51.452H399.451H365.471H364.752L364.934 52.1473L413.656 238.292Z" fill="#979AAD" stroke="#979AAD" stroke-width="1.10968"/>
</svg>
